src/assets/images/connectors/imtoken.svg

<svg width="100" height="71" viewBox="0 0 100 71" fill="none" xmlns="http://www.w3.org/2000/svg">
<path d="M99.7402 2.42046C103.038 47.0871 74.326 68.1989 48.5866 70.4502C24.6565 72.543 2.13141 57.839 0.155299 35.2472C-1.47478 16.5825 10.0608 8.63644 19.1242 7.84433C28.4461 7.0272 36.2797 13.4558 36.9592 21.2393C37.6138 28.7227 32.9445 32.1288 29.6968 32.4122C27.1287 32.6374 23.8978 31.0782 23.6059 27.7305C23.3558 24.8538 24.4481 24.462 24.1812 21.4061C23.706 15.9655 18.9617 15.3319 16.3644 15.557C13.2209 15.8321 7.51775 19.5009 8.3182 28.6393C9.12282 37.857 17.9611 45.1402 29.5467 44.1271C42.0496 43.0349 50.7544 33.3002 51.409 19.6468C51.4031 18.9236 51.5553 18.2079 51.8551 17.5498L51.8592 17.5331C51.9939 17.2471 52.1515 16.9725 52.3303 16.7118C52.5971 16.3116 52.939 15.8697 53.3809 15.386C53.3851 15.3735 53.3851 15.3735 53.3934 15.3735C53.7144 15.0108 54.1022 14.619 54.5399 14.1979C60.0013 9.045 79.6706 -3.10763 98.2727 0.740353C98.6658 0.824629 99.0211 1.03378 99.2856 1.33658C99.5501 1.63938 99.7096 2.01959 99.7402 2.42046" fill="url(#paint0_linear)"/>
<defs>
<linearGradient id="paint0_linear" x1="97.204" y1="1.97532" x2="32.478" y2="93.593" gradientUnits="userSpaceOnUse">
<stop stop-color="#11C4D1"/>
<stop offset="1" stop-color="#0062AD"/>
</linearGradient>
</defs>
</svg>

<svg xmlns="http://www.w3.org/2000/svg" width="100" height="71" fill="none"><path fill="url(#a)" d="M99.74 2.42c3.298 44.667-25.414 65.779-51.153 68.03C24.657 72.543 2.13 57.84.155 35.247c-1.63-18.664 9.906-26.61 18.97-27.403 9.321-.817 17.155 5.612 17.834 13.395.655 7.484-4.015 10.89-7.262 11.173-2.568.225-5.8-1.334-6.091-4.681-.25-2.877.842-3.269.575-6.325-.475-5.44-5.22-6.074-7.817-5.849-3.143.275-8.846 3.944-8.046 13.082.805 9.218 9.643 16.501 21.229 15.488C42.05 43.035 50.754 33.3 51.409 19.647a5 5 0 0 1 .446-2.097l.004-.017q.203-.43.471-.821c.267-.4.609-.842 1.05-1.326.005-.012.005-.012.013-.012.321-.363.71-.755 1.147-1.176C60 9.045 79.67-3.108 98.273.74a1.86 1.86 0 0 1 1.467 1.68"/><defs><linearGradient id="a" x1="97.204" x2="32.478" y1="1.975" y2="93.593" gradientUnits="userSpaceOnUse"><stop stop-color="#11C4D1"/><stop offset="1" stop-color="#0062AD"/></linearGradient></defs></svg>
